X:345
T: Kid (The)
T: Mionn\'an (An)
S: B.Breathnach: "Ceol Rince na hEireann" II/76
Z: B.Black
L: 1/8
M: 6/8
R: jig
K: G
Bc|: d2g B2A|GED G2A|BBB BAG|ABA ABc|
dgg B2A|GED G2A|BcB ABA|1 G3 GBc :|2 G3 G||
Bc|: d2B d2e|d2B d2e|d2B deg|a2a aga|
b2a g2f|e2a g2d|efg agf|gba gfe :|

